X:75
T: Paddy Lyons'
S: "Johnny O'Leary of Sliabh Luachra" (#3)
Z: B.Black
Q: 300
L: 1/8
M: 6/8
R: jig
K: D
BEE cBA|BEE ecA|BEE dcB|ADF d2F|
BEE cBA|BEE eBc|ded c/d/cB|1 AFD D3 :|2\
AFD DEF||
E2e eAe|eEe efe|EEe eBc|dcB AFD|
E/F/Ee eEe|eEe efe|dcB c2B|1 AFD DFD :|2\
AFD DFA||
